X:55
T:Polska ur Petter Dufvas notbok (Ma6-55)
R:Polska
O:Verkelbäck, Småland
B:Petter Dufvas notbok
S:Petter Dufva
N:Smus Ma6 bild 55
M:3/4
L:1/8
K:D
AB/2c/2 d2 c2 | dc/2d/2 ed/2e/2 f2 | GF G2 B2 | A/2G/2F/2E/2 D4 :|: 
E2 A2 ^G2 | AA/2c/2 BB/2d/2 c2 | E2 AdcB | A^GAECA, | 
=GG/2F/2 G2 F2 | dc/2d/2 ed/2e/2 f2 |GG/2F/2 G2 F2 | dc/2d/2 ed/2e/2 f2 | ag/2f/2 gf/2e/2 fe/2d/2 | ed/2c/2 d2 D2 :|

